X:1
T:We Shall Know Him
T:John Edmond Thomas
T:We Shall Know Him
T:Public Domain
T:Public Domain
T:Public Domain
C:John Edmond Thomas
Z:Public Domain
%%score ( 1 2 ) 3
L:1/8
M:4/4
K:Db
V:1 treble 
V:2 treble 
V:3 bass 
V:1
 D>[DF] | [FA]>[FA] [FA]>[GB] [FA]<[DF] [FA]>[EG] | [DF]>[CE] D>[CE] D2 [FA]>[FA] | %3
w: 1.~When we|be- yond the por- tals Of that gold-|en ci- ty fair, And a- round|
w: 2.~By and|when we have ga- thered In that par-|a- dise a- bove, Where our long-|
w: 3.~In that|ty bright e- ter- nal, He, the King|of glor- y reigns, And the an-|
w: 4.~There is|se- cure in know- ing We may nev-|er go a- stray, For we have|
w: 5.~Yes, we’ll|Him by the nail prints In His hands|and in His feet, By the spear|
 [Fd]>[Fd] [Fd]>[Fd] [Fd]>[Ac] [=GB]>[EG] | [EA]6 [FA]>[FA] | %5
w: ing throne of God we stand; Christ will|be the first|
w: ed loved ones we shall greet. First we’ll|look for Him|
w: His throne in rev- erence bow; O pro-|claim the won-|
w: èd Bi- ble as our guide, And we|read with- in|
w: His side our Lord we’ll know, If we|had no o-|
 [GB]>[GB] [GB]>[GB] [Ge]<[Gd] [Gd]>[GB] | [FA]>[FA] [FA]>[DF] [GB]<[FA] [FA]>[Fd] | %7
w: to greet us, At the pearl- y gate|He’ll meet us, And we’ll know Him by|
w: in Heav- en, Who to us new life|hath giv- en, And we’ll know Him by|
w: drous sto- ry Of the One who reigns|in glor- y, For we’ll know Him by|
w: its pag- es, He the rift- ed Rock|of Ag- es, We shall know Him by|
w: ther tok- en, There is ev- i- dence|un- spok- en, For we’d know Him by|
 [Bf]>[Bf] [Bf]>[Af] [Ge]>[Fd] [Ge]>[Ge] | [Fd]6 z2 ||"^Refrain" [Fd]3 [Fd] [Ge] [Fd]3 | %10
w: the nail prints in His hands. * *|||
w: the nail prints in His feet. * *|||
w: the thorn prints on His brow. We shall|know|Him, we shall know|
w: the spear prints in His side. * *|||
w: the thorn prints on His brow. * *|||
 [FA]3 [DF] [DE]<D D>[DF] | [FA]>[FA] [GB]<[GB] [FA]3 [FA] | [Af]3 [Af] [Af]>[Ae] [Ad]>[Ad] | %13
w: |||
w: |||
w: Him, When we’ve crossed death’s chil-|Yes, we shall know my bless-|èd Sav- ior By the spear|
w: |||
w: |||
 [Ge]<[Gd] [FA]>[GB] [FA]<[DF] [CE]>[CE] | D6 |] %15
w: ||
w: ||
w: prints in His side. * * * *||
w: ||
w: ||
V:2
 D3/2 x/ | x8 | x2 D3/2 D2 x5/2 | x8 | x8 | x8 | x8 | x8 | x8 || x8 | x9/2 D3/2 D3/2 x/ | x8 | x8 | %13
w: meet||the shin-|||||||||||
w: by,||de- part-|||||||||||
w: ci-||gels at||||||||ly tide.|||
w: peace||the bless-|||||||||||
w: know||prints in|||||||||||
 x8 | D6 |] %15
w: ||
w: ||
w: ||
w: ||
w: ||
V:3
 [D,F,]>[D,A,] | [D,D]>[D,D] [D,D]>[D,D] [D,D]<[D,A,] [D,A,]>[D,A,] | %2
 [A,,A,]>[A,,G,] [B,,F,]>[A,,G,] [D,F,]2 [D,D]>[D,D] | %3
 [D,A,]>[D,A,] [D,A,]>[D,A,] [E,=G,]>[E,B,] [E,D]>[E,D] | [A,,C]6 [D,D]>[D,D] | %5
 [G,,G,D]>[G,,G,D] [G,,G,D]>[G,,G,D] [G,,G,B,]<[G,,G,B,] [G,,G,B,]>[G,,G,D] | %6
 [D,D]>[D,D] [D,D]>[D,D] [D,D]>[D,D] [D,D]>[D,D] | %7
 [B,,D]>[B,,D] [B,,D]>[D,D] [A,,C]>[A,,D] [A,,A,]>[A,,A,] | [D,A,]6 z2 || %9
 [D,A,]3 [D,A,] [D,A,] [D,A,]3 | [D,D]3 [D,A,] [D,G,]<[D,F,] [D,F,]>[D,A,] | %11
 [A,,D]>[A,,A,] [A,,A,]<[A,,A,] [D,A,]3 [D,D] | [D,D]3 [D,D] [D,D]>[E,C] [F,D]>[F,D] | %13
 [G,B,]<[G,B,] [A,C]>[A,C] [A,,A,D]<[A,,A,] [A,,G,]>[A,,G,] | [D,F,]6 |] %15

